X:340
T:Violetta Hornpipe
R:Hornpipe
M:2/4
L:1/16
K:D
FG|A^GAB Adfd|Bdgf edcB|A^GAB AFDF|EDEF E2FG|
A^GAB Adfd|Bdgf edcB|Adfd Bgec|d2f2 d2:|
|:cd|e^def gecA|dcde fdAd|ggff edcd|(3efe (3dcB  A2FG|
A^GAB Adfd|Bdgf edcB|Adfd Bgec|d2f2 d2:|
